communes/2768.svg

<?xml version="1.0" encoding="UTF-8"?>
<svg width="525" height="612" version="1.1" viewBox="0 0 350 408" xmlns="http://www.w3.org/2000/svg" xmlns:cc="http://creativecommons.org/ns#" xmlns:dc="http://purl.org/dc/elements/1.1/" xmlns:rdf="http://www.w3.org/1999/02/22-rdf-syntax-ns#">
<metadata>
<rdf:RDF>
<cc:Work rdf:about="">
<dc:format>image/svg+xml</dc:format>
<dc:type rdf:resource="http://purl.org/dc/dcmitype/StillImage"/>
</cc:Work>
</rdf:RDF>
</metadata>
<title>Wappen von Ettingen</title>
<desc>Wappen der Schweizer Gemeinde Ettingen, Kanton Baselland</desc>
<defs>
<clipPath id="a">
<path d="m4 4h342v229a171 171 0 0 1-342 0z"/>
</clipPath>
</defs>
<g stroke="#000" stroke-width="4">
<path d="m2 2h346v231a173 173 0 0 1-346 0z" fill="#fff"/>
<path d="m2 2h173v406h175v-204h-350" clip-path="url(#a)" fill="#0056ad"/>
<path d="m175 83h66.5v-81h40v81h66.5v40h-66.5v81h-40v-81h-66.5z" fill="#e2001a"/>
</g>
</svg>

<?xml version="1.0" encoding="UTF-8" standalone="no"?>
<svg
   xmlns:dc="http://purl.org/dc/elements/1.1/"
   xmlns:cc="http://creativecommons.org/ns#"
   xmlns:rdf="http://www.w3.org/1999/02/22-rdf-syntax-ns#"
   xmlns:svg="http://www.w3.org/2000/svg"
   xmlns="http://www.w3.org/2000/svg"
   xmlns:sodipodi="http://sodipodi.sourceforge.net/DTD/sodipodi-0.dtd"
   xmlns:inkscape="http://www.inkscape.org/namespaces/inkscape"
   version="1.1"
   width="525"
   height="612"
   viewBox="0 0 350 408"
   id="svg19"
   sodipodi:docname="2768.svg">
  <metadata
     id="metadata23">
    <rdf:RDF>
      <cc:Work
         rdf:about="">
        <dc:format>image/svg+xml</dc:format>
        <dc:type
           rdf:resource="http://purl.org/dc/dcmitype/StillImage" />
      </cc:Work>
    </rdf:RDF>
  </metadata>
  <sodipodi:namedview
     pagecolor="#ffffff"
     bordercolor="#666666"
     borderopacity="1"
     objecttolerance="10"
     gridtolerance="10"
     guidetolerance="10"
     inkscape:pageopacity="0"
     inkscape:pageshadow="2"
     inkscape:window-width="640"
     inkscape:window-height="480"
     id="namedview21" />
  <title
     id="title2">Wappen von Ettingen</title>
  <desc
     id="desc4">Wappen der Schweizer Gemeinde Ettingen, Kanton Baselland</desc>
  <defs
     id="defs9">
    <clipPath
       id="cpSchild">
      <path
         d="M 4,4 H 346 V 233 A 171 171 0 0 1 4,233 z"
         id="path6" />
    </clipPath>
  </defs>
  <g
     stroke="black"
     stroke-width="4"
     id="g17">
    <path
       d="M 2,2 h 346 V 233 A 173 173 0 0 1 2,233 z"
       fill="white"
       id="path11" />
    <path
       d="M 2,2 H 175 V 408 H 350 V 204 H 0"
       fill="#0056ad"
       clip-path="url(#cpSchild)"
       id="path13" />
    <path
       d="M 175,83 h 66.5 V 2 h 40 V 83 H 348 v 40 h -66.5 v 81 h -40 v -81 H 175 z"
       fill="#e2001a"
       id="path15" />
  </g>
</svg>
